ummisco.gama.ui.shared/svg/views/tabs/view.interactive.svg

<?xml version="1.0" encoding="UTF-8" standalone="no"?>
<!DOCTYPE svg PUBLIC "-//W3C//DTD SVG 1.1//EN" "http://www.w3.org/Graphics/SVG/1.1/DTD/svg11.dtd">
<svg xmlns:xl="http://www.w3.org/1999/xlink" version="1.1" xmlns="http://www.w3.org/2000/svg" xmlns:dc="http://purl.org/dc/elements/1.1/" viewBox="-752 -3330 16 16" width="16" height="16">
  <defs/>
  <g id="ICONES" stroke="none" stroke-opacity="1" stroke-dasharray="none" fill="none" fill-opacity="1">
    <title>ICONES</title>
    <g id="ICONES_Calque_1">
      <title>Calque 1</title>
      <g id="Group_1969">
        <title>views/tabs/view.interactive</title>
        <g id="Graphic_1971">
          <path d="M -743.0012 -3330 C -746.8681 -3330 -750.0024 -3327.44 -750.0024 -3324.282 C -750.0024 -3321.124 -746.8681 -3318.564 -743.0012 -3318.564 C -742.6297 -3318.564 -742.2652 -3318.5877 -741.9095 -3318.6335 C -740.40595 -3317.1217 -738.6106 -3316.8508 -736.87515 -3316.8108 L -736.87515 -3317.1807 C -737.8124 -3317.642 -738.6255 -3318.483 -738.6255 -3319.4437 C -738.6255 -3319.578 -738.61495 -3319.7094 -738.5957 -3319.8382 C -737.01255 -3320.8864 -736 -3322.4874 -736 -3324.282 C -736 -3327.44 -739.1344 -3330 -743.0012 -3330 Z" fill="#518737"/>
        </g>
        <g id="Graphic_1970">
          <path d="M -746.7491 -3323.892 C -743.8489 -3323.892 -741.4982 -3321.972 -741.4982 -3319.6034 C -741.4982 -3317.235 -743.8489 -3315.315 -746.7491 -3315.315 C -747.0277 -3315.315 -747.3011 -3315.3327 -747.5679 -3315.367 C -748.6955 -3314.2332 -750.0421 -3314.03 -751.3436 -3314 L -751.3436 -3314.2774 C -750.6407 -3314.6235 -750.0309 -3315.2542 -750.0309 -3315.9747 C -750.0309 -3316.0753 -750.0388 -3316.174 -750.0532 -3316.2706 C -751.2406 -3317.0567 -752 -3318.2575 -752 -3319.6034 C -752 -3321.972 -749.6492 -3323.892 -746.7491 -3323.892 Z" fill="#cf7738"/>
        </g>
      </g>
    </g>
  </g>
</svg>

<svg xmlns="http://www.w3.org/2000/svg" viewBox="-752 -3330 16 16" width="16" height="16"><g fill="none"><path d="M-743.001-3330c-3.867 0-7.001 2.56-7.001 5.718s3.134 5.718 7 5.718c.372 0 .737-.024 1.092-.07 1.504 1.512 3.3 1.783 5.035 1.823v-.37c-.937-.461-1.75-1.302-1.75-2.263 0-.134.01-.265.03-.394 1.582-1.048 2.595-2.65 2.595-4.444 0-3.158-3.134-5.718-7.001-5.718Z" fill="#518737"/><path d="M-746.75-3323.892c2.901 0 5.252 1.92 5.252 4.289 0 2.368-2.35 4.288-5.251 4.288a6.42 6.42 0 0 1-.819-.052c-1.128 1.134-2.474 1.337-3.776 1.367v-.277c.703-.347 1.313-.977 1.313-1.698 0-.1-.008-.199-.022-.296-1.188-.786-1.947-1.986-1.947-3.332 0-2.369 2.35-4.289 5.25-4.289Z" fill="#cf7738"/></g></svg>
